X:1
T:Title
L:1/8
M:4/4
K:Ab
V:1 treble nm="Grand Piano"
V:1
 z4 z[Q:1/4=100] A2 G | F3 C- C B2 A | G3 =E- E G2 A | B3 B- BdcB | c4- c B2 =A | B2 G2- G A2 G | %6
 A2 F2- F =E2 F | G3 B- B A2 G | F4- F A2 B | c3 c- c d2 c | B3 B- B c2 B | A3 c- cBAB | %12
 G4- G A2 G | F3 E- E G2 F | E3 D- D F2 E | D3 B,- B, C2 D | C4- C c2 _c | c2 A2 FC c2 | %18
 B4- B B2 =A | B3 B- BdcB | B4 A2 AG | A3 c- c B2 A | BAAG G c2 d | c3 B- B A2 G | AG F6 |] %25

